assets/ocio_configs/srgb_reinhard/luts/reinhard_33.cube
LUT_3D_SIZE 9
0.000000 0.000000 0.000000
0.666667 0.000000 0.000000
0.800000 0.000000 0.000000
0.857143 0.000000 0.000000
0.888889 0.000000 0.000000
0.909091 0.000000 0.000000
0.923077 0.000000 0.000000
0.933333 0.000000 0.000000
0.941176 0.000000 0.000000
0.000000 0.666667 0.000000
0.666667 0.666667 0.000000
0.800000 0.666667 0.000000
0.857143 0.666667 0.000000
0.888889 0.666667 0.000000
0.909091 0.666667 0.000000
0.923077 0.666667 0.000000
0.933333 0.666667 0.000000
0.941176 0.666667 0.000000
0.000000 0.800000 0.000000
0.666667 0.800000 0.000000
0.800000 0.800000 0.000000
0.857143 0.800000 0.000000
0.888889 0.800000 0.000000
0.909091 0.800000 0.000000
0.923077 0.800000 0.000000
0.933333 0.800000 0.000000
0.941176 0.800000 0.000000
0.000000 0.857143 0.000000
0.666667 0.857143 0.000000
0.800000 0.857143 0.000000
0.857143 0.857143 0.000000
0.888889 0.857143 0.000000
0.909091 0.857143 0.000000
0.923077 0.857143 0.000000
0.933333 0.857143 0.000000
0.941176 0.857143 0.000000
0.000000 0.888889 0.000000
0.666667 0.888889 0.000000
0.800000 0.888889 0.000000
0.857143 0.888889 0.000000
0.888889 0.888889 0.000000
0.909091 0.888889 0.000000
0.923077 0.888889 0.000000
0.933333 0.888889 0.000000
0.941176 0.888889 0.000000
0.000000 0.909091 0.000000
0.666667 0.909091 0.000000
0.800000 0.909091 0.000000
0.857143 0.909091 0.000000
0.888889 0.909091 0.000000
0.909091 0.909091 0.000000
0.923077 0.909091 0.000000
0.933333 0.909091 0.000000
0.941176 0.909091 0.000000
0.000000 0.923077 0.000000
0.666667 0.923077 0.000000
0.800000 0.923077 0.000000
0.857143 0.923077 0.000000
0.888889 0.923077 0.000000
0.909091 0.923077 0.000000
0.923077 0.923077 0.000000
0.933333 0.923077 0.000000
0.941176 0.923077 0.000000
0.000000 0.933333 0.000000
0.666667 0.933333 0.000000
0.800000 0.933333 0.000000
0.857143 0.933333 0.000000
0.888889 0.933333 0.000000
0.909091 0.933333 0.000000
0.923077 0.933333 0.000000
0.933333 0.933333 0.000000
0.941176 0.933333 0.000000
0.000000 0.941176 0.000000
0.666667 0.941176 0.000000
0.800000 0.941176 0.000000
0.857143 0.941176 0.000000
0.888889 0.941176 0.000000
0.909091 0.941176 0.000000
0.923077 0.941176 0.000000
0.933333 0.941176 0.000000
0.941176 0.941176 0.000000
0.000000 0.000000 0.666667
0.666667 0.000000 0.666667
0.800000 0.000000 0.666667
0.857143 0.000000 0.666667
0.888889 0.000000 0.666667
0.909091 0.000000 0.666667
0.923077 0.000000 0.666667
0.933333 0.000000 0.666667
0.941176 0.000000 0.666667
0.000000 0.666667 0.666667
0.666667 0.666667 0.666667
0.800000 0.666667 0.666667
0.857143 0.666667 0.666667
0.888889 0.666667 0.666667
0.909091 0.666667 0.666667
0.923077 0.666667 0.666667
0.933333 0.666667 0.666667
0.941176 0.666667 0.666667
0.000000 0.800000 0.666667
0.666667 0.800000 0.666667
0.800000 0.800000 0.666667
0.857143 0.800000 0.666667
0.888889 0.800000 0.666667
0.909091 0.800000 0.666667
0.923077 0.800000 0.666667
0.933333 0.800000 0.666667
0.941176 0.800000 0.666667
0.000000 0.857143 0.666667
0.666667 0.857143 0.666667
0.800000 0.857143 0.666667
0.857143 0.857143 0.666667
0.888889 0.857143 0.666667
0.909091 0.857143 0.666667
0.923077 0.857143 0.666667
0.933333 0.857143 0.666667
0.941176 0.857143 0.666667
0.000000 0.888889 0.666667
0.666667 0.888889 0.666667
0.800000 0.888889 0.666667
0.857143 0.888889 0.666667
0.888889 0.888889 0.666667
0.909091 0.888889 0.666667
0.923077 0.888889 0.666667
0.933333 0.888889 0.666667
0.941176 0.888889 0.666667
0.000000 0.909091 0.666667
0.666667 0.909091 0.666667
0.800000 0.909091 0.666667
0.857143 0.909091 0.666667
0.888889 0.909091 0.666667
0.909091 0.909091 0.666667
0.923077 0.909091 0.666667
0.933333 0.909091 0.666667
0.941176 0.909091 0.666667
0.000000 0.923077 0.666667
0.666667 0.923077 0.666667
0.800000 0.923077 0.666667
0.857143 0.923077 0.666667
0.888889 0.923077 0.666667
0.909091 0.923077 0.666667
0.923077 0.923077 0.666667
0.933333 0.923077 0.666667
0.941176 0.923077 0.666667
0.000000 0.933333 0.666667
0.666667 0.933333 0.666667
0.800000 0.933333 0.666667
0.857143 0.933333 0.666667
0.888889 0.933333 0.666667
0.909091 0.933333 0.666667
0.923077 0.933333 0.666667
0.933333 0.933333 0.666667
0.941176 0.933333 0.666667
0.000000 0.941176 0.666667
0.666667 0.941176 0.666667
0.800000 0.941176 0.666667
0.857143 0.941176 0.666667
0.888889 0.941176 0.666667
0.909091 0.941176 0.666667
0.923077 0.941176 0.666667
0.933333 0.941176 0.666667
0.941176 0.941176 0.666667
0.000000 0.000000 0.800000
0.666667 0.000000 0.800000
0.800000 0.000000 0.800000
0.857143 0.000000 0.800000
0.888889 0.000000 0.800000
0.909091 0.000000 0.800000
0.923077 0.000000 0.800000
0.933333 0.000000 0.800000
0.941176 0.000000 0.800000
0.000000 0.666667 0.800000
0.666667 0.666667 0.800000
0.800000 0.666667 0.800000
0.857143 0.666667 0.800000
0.888889 0.666667 0.800000
0.909091 0.666667 0.800000
0.923077 0.666667 0.800000
0.933333 0.666667 0.800000
0.941176 0.666667 0.800000
0.000000 0.800000 0.800000
0.666667 0.800000 0.800000
0.800000 0.800000 0.800000
0.857143 0.800000 0.800000
0.888889 0.800000 0.800000
0.909091 0.800000 0.800000
0.923077 0.800000 0.800000
0.933333 0.800000 0.800000
0.941176 0.800000 0.800000
0.000000 0.857143 0.800000
0.666667 0.857143 0.800000
0.800000 0.857143 0.800000
0.857143 0.857143 0.800000
0.888889 0.857143 0.800000
0.909091 0.857143 0.800000
0.923077 0.857143 0.800000
0.933333 0.857143 0.800000
0.941176 0.857143 0.800000
0.000000 0.888889 0.800000
0.666667 0.888889 0.800000
0.800000 0.888889 0.800000
0.857143 0.888889 0.800000
0.888889 0.888889 0.800000
0.909091 0.888889 0.800000
0.923077 0.888889 0.800000
0.933333 0.888889 0.800000
0.941176 0.888889 0.800000
0.000000 0.909091 0.800000
0.666667 0.909091 0.800000
0.800000 0.909091 0.800000
0.857143 0.909091 0.800000
0.888889 0.909091 0.800000
0.909091 0.909091 0.800000
0.923077 0.909091 0.800000
0.933333 0.909091 0.800000
0.941176 0.909091 0.800000
0.000000 0.923077 0.800000
0.666667 0.923077 0.800000
0.800000 0.923077 0.800000
0.857143 0.923077 0.800000
0.888889 0.923077 0.800000
0.909091 0.923077 0.800000
0.923077 0.923077 0.800000
0.933333 0.923077 0.800000
0.941176 0.923077 0.800000
0.000000 0.933333 0.800000
0.666667 0.933333 0.800000
0.800000 0.933333 0.800000
0.857143 0.933333 0.800000
0.888889 0.933333 0.800000
0.909091 0.933333 0.800000
0.923077 0.933333 0.800000
0.933333 0.933333 0.800000
0.941176 0.933333 0.800000
0.000000 0.941176 0.800000
0.666667 0.941176 0.800000
0.800000 0.941176 0.800000
0.857143 0.941176 0.800000
0.888889 0.941176 0.800000
0.909091 0.941176 0.800000
0.923077 0.941176 0.800000
0.933333 0.941176 0.800000
0.941176 0.941176 0.800000
0.000000 0.000000 0.857143
0.666667 0.000000 0.857143
0.800000 0.000000 0.857143
0.857143 0.000000 0.857143
0.888889 0.000000 0.857143
0.909091 0.000000 0.857143
0.923077 0.000000 0.857143
0.933333 0.000000 0.857143
0.941176 0.000000 0.857143
0.000000 0.666667 0.857143
0.666667 0.666667 0.857143
0.800000 0.666667 0.857143
0.857143 0.666667 0.857143
0.888889 0.666667 0.857143
0.909091 0.666667 0.857143
0.923077 0.666667 0.857143
0.933333 0.666667 0.857143
0.941176 0.666667 0.857143
0.000000 0.800000 0.857143
0.666667 0.800000 0.857143
0.800000 0.800000 0.857143
0.857143 0.800000 0.857143
0.888889 0.800000 0.857143
0.909091 0.800000 0.857143
0.923077 0.800000 0.857143
0.933333 0.800000 0.857143
0.941176 0.800000 0.857143
0.000000 0.857143 0.857143
0.666667 0.857143 0.857143
0.800000 0.857143 0.857143
0.857143 0.857143 0.857143
0.888889 0.857143 0.857143
0.909091 0.857143 0.857143
0.923077 0.857143 0.857143
0.933333 0.857143 0.857143
0.941176 0.857143 0.857143
0.000000 0.888889 0.857143
0.666667 0.888889 0.857143
0.800000 0.888889 0.857143
0.857143 0.888889 0.857143
0.888889 0.888889 0.857143
0.909091 0.888889 0.857143
0.923077 0.888889 0.857143
0.933333 0.888889 0.857143
0.941176 0.888889 0.857143
0.000000 0.909091 0.857143
0.666667 0.909091 0.857143
0.800000 0.909091 0.857143
0.857143 0.909091 0.857143
0.888889 0.909091 0.857143
0.909091 0.909091 0.857143
0.923077 0.909091 0.857143
0.933333 0.909091 0.857143
0.941176 0.909091 0.857143
0.000000 0.923077 0.857143
0.666667 0.923077 0.857143
0.800000 0.923077 0.857143
0.857143 0.923077 0.857143
0.888889 0.923077 0.857143
0.909091 0.923077 0.857143
0.923077 0.923077 0.857143
0.933333 0.923077 0.857143
0.941176 0.923077 0.857143
0.000000 0.933333 0.857143
0.666667 0.933333 0.857143
0.800000 0.933333 0.857143
0.857143 0.933333 0.857143
0.888889 0.933333 0.857143
0.909091 0.933333 0.857143
0.923077 0.933333 0.857143
0.933333 0.933333 0.857143
0.941176 0.933333 0.857143
0.000000 0.941176 0.857143
0.666667 0.941176 0.857143
0.800000 0.941176 0.857143
0.857143 0.941176 0.857143
0.888889 0.941176 0.857143
0.909091 0.941176 0.857143
0.923077 0.941176 0.857143
0.933333 0.941176 0.857143
0.941176 0.941176 0.857143
0.000000 0.000000 0.888889
0.666667 0.000000 0.888889
0.800000 0.000000 0.888889
0.857143 0.000000 0.888889
0.888889 0.000000 0.888889
0.909091 0.000000 0.888889
0.923077 0.000000 0.888889
0.933333 0.000000 0.888889
0.941176 0.000000 0.888889
0.000000 0.666667 0.888889
0.666667 0.666667 0.888889
0.800000 0.666667 0.888889
0.857143 0.666667 0.888889
0.888889 0.666667 0.888889
0.909091 0.666667 0.888889
0.923077 0.666667 0.888889
0.933333 0.666667 0.888889
0.941176 0.666667 0.888889
0.000000 0.800000 0.888889
0.666667 0.800000 0.888889
0.800000 0.800000 0.888889
0.857143 0.800000 0.888889
0.888889 0.800000 0.888889
0.909091 0.800000 0.888889
0.923077 0.800000 0.888889
0.933333 0.800000 0.888889
0.941176 0.800000 0.888889
0.000000 0.857143 0.888889
0.666667 0.857143 0.888889
0.800000 0.857143 0.888889
0.857143 0.857143 0.888889
0.888889 0.857143 0.888889
0.909091 0.857143 0.888889
0.923077 0.857143 0.888889
0.933333 0.857143 0.888889
0.941176 0.857143 0.888889
0.000000 0.888889 0.888889
0.666667 0.888889 0.888889
0.800000 0.888889 0.888889
0.857143 0.888889 0.888889
0.888889 0.888889 0.888889
0.909091 0.888889 0.888889
0.923077 0.888889 0.888889
0.933333 0.888889 0.888889
0.941176 0.888889 0.888889
0.000000 0.909091 0.888889
0.666667 0.909091 0.888889
0.800000 0.909091 0.888889
0.857143 0.909091 0.888889
0.888889 0.909091 0.888889
0.909091 0.909091 0.888889
0.923077 0.909091 0.888889
0.933333 0.909091 0.888889
0.941176 0.909091 0.888889
0.000000 0.923077 0.888889
0.666667 0.923077 0.888889
0.800000 0.923077 0.888889
0.857143 0.923077 0.888889
0.888889 0.923077 0.888889
0.909091 0.923077 0.888889
0.923077 0.923077 0.888889
0.933333 0.923077 0.888889
0.941176 0.923077 0.888889
0.000000 0.933333 0.888889
0.666667 0.933333 0.888889
0.800000 0.933333 0.888889
0.857143 0.933333 0.888889
0.888889 0.933333 0.888889
0.909091 0.933333 0.888889
0.923077 0.933333 0.888889
0.933333 0.933333 0.888889
0.941176 0.933333 0.888889
0.000000 0.941176 0.888889
0.666667 0.941176 0.888889
0.800000 0.941176 0.888889
0.857143 0.941176 0.888889
0.888889 0.941176 0.888889
0.909091 0.941176 0.888889
0.923077 0.941176 0.888889
0.933333 0.941176 0.888889
0.941176 0.941176 0.888889
0.000000 0.000000 0.909091
0.666667 0.000000 0.909091
0.800000 0.000000 0.909091
0.857143 0.000000 0.909091
0.888889 0.000000 0.909091
0.909091 0.000000 0.909091
0.923077 0.000000 0.909091
0.933333 0.000000 0.909091
0.941176 0.000000 0.909091
0.000000 0.666667 0.909091
0.666667 0.666667 0.909091
0.800000 0.666667 0.909091
0.857143 0.666667 0.909091
0.888889 0.666667 0.909091
0.909091 0.666667 0.909091
0.923077 0.666667 0.909091
0.933333 0.666667 0.909091
0.941176 0.666667 0.909091
0.000000 0.800000 0.909091
0.666667 0.800000 0.909091
0.800000 0.800000 0.909091
0.857143 0.800000 0.909091
0.888889 0.800000 0.909091
0.909091 0.800000 0.909091
0.923077 0.800000 0.909091
0.933333 0.800000 0.909091
0.941176 0.800000 0.909091
0.000000 0.857143 0.909091
0.666667 0.857143 0.909091
0.800000 0.857143 0.909091
0.857143 0.857143 0.909091
0.888889 0.857143 0.909091
0.909091 0.857143 0.909091
0.923077 0.857143 0.909091
0.933333 0.857143 0.909091
0.941176 0.857143 0.909091
0.000000 0.888889 0.909091
0.666667 0.888889 0.909091
0.800000 0.888889 0.909091
0.857143 0.888889 0.909091
0.888889 0.888889 0.909091
0.909091 0.888889 0.909091
0.923077 0.888889 0.909091
0.933333 0.888889 0.909091
0.941176 0.888889 0.909091
0.000000 0.909091 0.909091
0.666667 0.909091 0.909091
0.800000 0.909091 0.909091
0.857143 0.909091 0.909091
0.888889 0.909091 0.909091
0.909091 0.909091 0.909091
0.923077 0.909091 0.909091
0.933333 0.909091 0.909091
0.941176 0.909091 0.909091
0.000000 0.923077 0.909091
0.666667 0.923077 0.909091
0.800000 0.923077 0.909091
0.857143 0.923077 0.909091
0.888889 0.923077 0.909091
0.909091 0.923077 0.909091
0.923077 0.923077 0.909091
0.933333 0.923077 0.909091
0.941176 0.923077 0.909091
0.000000 0.933333 0.909091
0.666667 0.933333 0.909091
0.800000 0.933333 0.909091
0.857143 0.933333 0.909091
0.888889 0.933333 0.909091
0.909091 0.933333 0.909091
0.923077 0.933333 0.909091
0.933333 0.933333 0.909091
0.941176 0.933333 0.909091
0.000000 0.941176 0.909091
0.666667 0.941176 0.909091
0.800000 0.941176 0.909091
0.857143 0.941176 0.909091
0.888889 0.941176 0.909091
0.909091 0.941176 0.909091
0.923077 0.941176 0.909091
0.933333 0.941176 0.909091
0.941176 0.941176 0.909091
0.000000 0.000000 0.923077
0.666667 0.000000 0.923077
0.800000 0.000000 0.923077
0.857143 0.000000 0.923077
0.888889 0.000000 0.923077
0.909091 0.000000 0.923077
0.923077 0.000000 0.923077
0.933333 0.000000 0.923077
0.941176 0.000000 0.923077
0.000000 0.666667 0.923077
0.666667 0.666667 0.923077
0.800000 0.666667 0.923077
0.857143 0.666667 0.923077
0.888889 0.666667 0.923077
0.909091 0.666667 0.923077
0.923077 0.666667 0.923077
0.933333 0.666667 0.923077
0.941176 0.666667 0.923077
0.000000 0.800000 0.923077
0.666667 0.800000 0.923077
0.800000 0.800000 0.923077
0.857143 0.800000 0.923077
0.888889 0.800000 0.923077
0.909091 0.800000 0.923077
0.923077 0.800000 0.923077
0.933333 0.800000 0.923077
0.941176 0.800000 0.923077
0.000000 0.857143 0.923077
0.666667 0.857143 0.923077
0.800000 0.857143 0.923077
0.857143 0.857143 0.923077
0.888889 0.857143 0.923077
0.909091 0.857143 0.923077
0.923077 0.857143 0.923077
0.933333 0.857143 0.923077
0.941176 0.857143 0.923077
0.000000 0.888889 0.923077
0.666667 0.888889 0.923077
0.800000 0.888889 0.923077
0.857143 0.888889 0.923077
0.888889 0.888889 0.923077
0.909091 0.888889 0.923077
0.923077 0.888889 0.923077
0.933333 0.888889 0.923077
0.941176 0.888889 0.923077
0.000000 0.909091 0.923077
0.666667 0.909091 0.923077
0.800000 0.909091 0.923077
0.857143 0.909091 0.923077
0.888889 0.909091 0.923077
0.909091 0.909091 0.923077
0.923077 0.909091 0.923077
0.933333 0.909091 0.923077
0.941176 0.909091 0.923077
0.000000 0.923077 0.923077
0.666667 0.923077 0.923077
0.800000 0.923077 0.923077
0.857143 0.923077 0.923077
0.888889 0.923077 0.923077
0.909091 0.923077 0.923077
0.923077 0.923077 0.923077
0.933333 0.923077 0.923077
0.941176 0.923077 0.923077
0.000000 0.933333 0.923077
0.666667 0.933333 0.923077
0.800000 0.933333 0.923077
0.857143 0.933333 0.923077
0.888889 0.933333 0.923077
0.909091 0.933333 0.923077
0.923077 0.933333 0.923077
0.933333 0.933333 0.923077
0.941176 0.933333 0.923077
0.000000 0.941176 0.923077
0.666667 0.941176 0.923077
0.800000 0.941176 0.923077
0.857143 0.941176 0.923077
0.888889 0.941176 0.923077
0.909091 0.941176 0.923077
0.923077 0.941176 0.923077
0.933333 0.941176 0.923077
0.941176 0.941176 0.923077
0.000000 0.000000 0.933333
0.666667 0.000000 0.933333
0.800000 0.000000 0.933333
0.857143 0.000000 0.933333
0.888889 0.000000 0.933333
0.909091 0.000000 0.933333
0.923077 0.000000 0.933333
0.933333 0.000000 0.933333
0.941176 0.000000 0.933333
0.000000 0.666667 0.933333
0.666667 0.666667 0.933333
0.800000 0.666667 0.933333
0.857143 0.666667 0.933333
0.888889 0.666667 0.933333
0.909091 0.666667 0.933333
0.923077 0.666667 0.933333
0.933333 0.666667 0.933333
0.941176 0.666667 0.933333
0.000000 0.800000 0.933333
0.666667 0.800000 0.933333
0.800000 0.800000 0.933333
0.857143 0.800000 0.933333
0.888889 0.800000 0.933333
0.909091 0.800000 0.933333
0.923077 0.800000 0.933333
0.933333 0.800000 0.933333
0.941176 0.800000 0.933333
0.000000 0.857143 0.933333
0.666667 0.857143 0.933333
0.800000 0.857143 0.933333
0.857143 0.857143 0.933333
0.888889 0.857143 0.933333
0.909091 0.857143 0.933333
0.923077 0.857143 0.933333
0.933333 0.857143 0.933333
0.941176 0.857143 0.933333
0.000000 0.888889 0.933333
0.666667 0.888889 0.933333
0.800000 0.888889 0.933333
0.857143 0.888889 0.933333
0.888889 0.888889 0.933333
0.909091 0.888889 0.933333
0.923077 0.888889 0.933333
0.933333 0.888889 0.933333
0.941176 0.888889 0.933333
0.000000 0.909091 0.933333
0.666667 0.909091 0.933333
0.800000 0.909091 0.933333
0.857143 0.909091 0.933333
0.888889 0.909091 0.933333
0.909091 0.909091 0.933333
0.923077 0.909091 0.933333
0.933333 0.909091 0.933333
0.941176 0.909091 0.933333
0.000000 0.923077 0.933333
0.666667 0.923077 0.933333
0.800000 0.923077 0.933333
0.857143 0.923077 0.933333
0.888889 0.923077 0.933333
0.909091 0.923077 0.933333
0.923077 0.923077 0.933333
0.933333 0.923077 0.933333
0.941176 0.923077 0.933333
0.000000 0.933333 0.933333
0.666667 0.933333 0.933333
0.800000 0.933333 0.933333
0.857143 0.933333 0.933333
0.888889 0.933333 0.933333
0.909091 0.933333 0.933333
0.923077 0.933333 0.933333
0.933333 0.933333 0.933333
0.941176 0.933333 0.933333
0.000000 0.941176 0.933333
0.666667 0.941176 0.933333
0.800000 0.941176 0.933333
0.857143 0.941176 0.933333
0.888889 0.941176 0.933333
0.909091 0.941176 0.933333
0.923077 0.941176 0.933333
0.933333 0.941176 0.933333
0.941176 0.941176 0.933333
0.000000 0.000000 0.941176
0.666667 0.000000 0.941176
0.800000 0.000000 0.941176
0.857143 0.000000 0.941176
0.888889 0.000000 0.941176
0.909091 0.000000 0.941176
0.923077 0.000000 0.941176
0.933333 0.000000 0.941176
0.941176 0.000000 0.941176
0.000000 0.666667 0.941176
0.666667 0.666667 0.941176
0.800000 0.666667 0.941176
0.857143 0.666667 0.941176
0.888889 0.666667 0.941176
0.909091 0.666667 0.941176
0.923077 0.666667 0.941176
0.933333 0.666667 0.941176
0.941176 0.666667 0.941176
0.000000 0.800000 0.941176
0.666667 0.800000 0.941176
0.800000 0.800000 0.941176
0.857143 0.800000 0.941176
0.888889 0.800000 0.941176
0.909091 0.800000 0.941176
0.923077 0.800000 0.941176
0.933333 0.800000 0.941176
0.941176 0.800000 0.941176
0.000000 0.857143 0.941176
0.666667 0.857143 0.941176
0.800000 0.857143 0.941176
0.857143 0.857143 0.941176
0.888889 0.857143 0.941176
0.909091 0.857143 0.941176
0.923077 0.857143 0.941176
0.933333 0.857143 0.941176
0.941176 0.857143 0.941176
0.000000 0.888889 0.941176
0.666667 0.888889 0.941176
0.800000 0.888889 0.941176
0.857143 0.888889 0.941176
0.888889 0.888889 0.941176
0.909091 0.888889 0.941176
0.923077 0.888889 0.941176
0.933333 0.888889 0.941176
0.941176 0.888889 0.941176
0.000000 0.909091 0.941176
0.666667 0.909091 0.941176
0.800000 0.909091 0.941176
0.857143 0.909091 0.941176
0.888889 0.909091 0.941176
0.909091 0.909091 0.941176
0.923077 0.909091 0.941176
0.933333 0.909091 0.941176
0.941176 0.909091 0.941176
0.000000 0.923077 0.941176
0.666667 0.923077 0.941176
0.800000 0.923077 0.941176
0.857143 0.923077 0.941176
0.888889 0.923077 0.941176
0.909091 0.923077 0.941176
0.923077 0.923077 0.941176
0.933333 0.923077 0.941176
0.941176 0.923077 0.941176
0.000000 0.933333 0.941176
0.666667 0.933333 0.941176
0.800000 0.933333 0.941176
0.857143 0.933333 0.941176
0.888889 0.933333 0.941176
0.909091 0.933333 0.941176
0.923077 0.933333 0.941176
0.933333 0.933333 0.941176
0.941176 0.933333 0.941176
0.000000 0.941176 0.941176
0.666667 0.941176 0.941176
0.800000 0.941176 0.941176
0.857143 0.941176 0.941176
0.888889 0.941176 0.941176
0.909091 0.941176 0.941176
0.923077 0.941176 0.941176
0.933333 0.941176 0.941176
0.941176 0.941176 0.941176
