assets/ocio_configs/srgb_reinhard/luts/reinhard_33.cube
LUT_3D_SIZE 33
0.000000 0.000000 0.000000
0.333333 0.000000 0.000000
0.500000 0.000000 0.000000
0.600000 0.000000 0.000000
0.666667 0.000000 0.000000
0.714286 0.000000 0.000000
0.750000 0.000000 0.000000
0.777778 0.000000 0.000000
0.800000 0.000000 0.000000
0.818182 0.000000 0.000000
0.833333 0.000000 0.000000
0.846154 0.000000 0.000000
0.857143 0.000000 0.000000
0.866667 0.000000 0.000000
0.875000 0.000000 0.000000
0.882353 0.000000 0.000000
0.888889 0.000000 0.000000
0.894737 0.000000 0.000000
0.900000 0.000000 0.000000
0.904762 0.000000 0.000000
0.909091 0.000000 0.000000
0.913043 0.000000 0.000000
0.916667 0.000000 0.000000
0.920000 0.000000 0.000000
0.923077 0.000000 0.000000
0.925926 0.000000 0.000000
0.928571 0.000000 0.000000
0.931035 0.000000 0.000000
0.933333 0.000000 0.000000
0.935484 0.000000 0.000000
0.937500 0.000000 0.000000
0.939394 0.000000 0.000000
0.941176 0.000000 0.000000
0.000000 0.333333 0.000000
0.333333 0.333333 0.000000
0.500000 0.333333 0.000000
0.600000 0.333333 0.000000
0.666667 0.333333 0.000000
0.714286 0.333333 0.000000
0.750000 0.333333 0.000000
0.777778 0.333333 0.000000
0.800000 0.333333 0.000000
0.818182 0.333333 0.000000
0.833333 0.333333 0.000000
0.846154 0.333333 0.000000
0.857143 0.333333 0.000000
0.866667 0.333333 0.000000
0.875000 0.333333 0.000000
0.882353 0.333333 0.000000
0.888889 0.333333 0.000000
0.894737 0.333333 0.000000
0.900000 0.333333 0.000000
0.904762 0.333333 0.000000
0.909091 0.333333 0.000000
0.913043 0.333333 0.000000
0.916667 0.333333 0.000000
0.920000 0.333333 0.000000
0.923077 0.333333 0.000000
0.925926 0.333333 0.000000
0.928571 0.333333 0.000000
0.931035 0.333333 0.000000
0.933333 0.333333 0.000000
0.935484 0.333333 0.000000
0.937500 0.333333 0.000000
0.939394 0.333333 0.000000
0.941176 0.333333 0.000000
0.000000 0.500000 0.000000
0.333333 0.500000 0.000000
0.500000 0.500000 0.000000
0.600000 0.500000 0.000000
0.666667 0.500000 0.000000
0.714286 0.500000 0.000000
0.750000 0.500000 0.000000
0.777778 0.500000 0.000000
0.800000 0.500000 0.000000
0.818182 0.500000 0.000000
0.833333 0.500000 0.000000
0.846154 0.500000 0.000000
0.857143 0.500000 0.000000
0.866667 0.500000 0.000000
0.875000 0.500000 0.000000
0.882353 0.500000 0.000000
0.888889 0.500000 0.000000
0.894737 0.500000 0.000000
0.900000 0.500000 0.000000
0.904762 0.500000 0.000000
0.909091 0.500000 0.000000
0.913043 0.500000 0.000000
0.916667 0.500000 0.000000
0.920000 0.500000 0.000000
0.923077 0.500000 0.000000
0.925926 0.500000 0.000000
0.928571 0.500000 0.000000
0.931035 0.500000 0.000000
0.933333 0.500000 0.000000
0.935484 0.500000 0.000000
0.937500 0.500000 0.000000
0.939394 0.500000 0.000000
0.941176 0.500000 0.000000
0.000000 0.600000 0.000000
0.333333 0.600000 0.000000
0.500000 0.600000 0.000000
0.600000 0.600000 0.000000
0.666667 0.600000 0.000000
0.714286 0.600000 0.000000
0.750000 0.600000 0.000000
0.777778 0.600000 0.000000
0.800000 0.600000 0.000000
0.818182 0.600000 0.000000
0.833333 0.600000 0.000000
0.846154 0.600000 0.000000
0.857143 0.600000 0.000000
0.866667 0.600000 0.000000
0.875000 0.600000 0.000000
0.882353 0.600000 0.000000
0.888889 0.600000 0.000000
0.894737 0.600000 0.000000
0.900000 0.600000 0.000000
0.904762 0.600000 0.000000
0.909091 0.600000 0.000000
0.913043 0.600000 0.000000
0.916667 0.600000 0.000000
0.920000 0.600000 0.000000
0.923077 0.600000 0.000000
0.925926 0.600000 0.000000
0.928571 0.600000 0.000000
0.931035 0.600000 0.000000
0.933333 0.600000 0.000000
0.935484 0.600000 0.000000
0.937500 0.600000 0.000000
0.939394 0.600000 0.000000
0.941176 0.600000 0.000000
0.000000 0.666667 0.000000
0.333333 0.666667 0.000000
0.500000 0.666667 0.000000
0.600000 0.666667 0.000000
0.666667 0.666667 0.000000
0.714286 0.666667 0.000000
0.750000 0.666667 0.000000
0.777778 0.666667 0.000000
0.800000 0.666667 0.000000
0.818182 0.666667 0.000000
0.833333 0.666667 0.000000
0.846154 0.666667 0.000000
0.857143 0.666667 0.000000
0.866667 0.666667 0.000000
0.875000 0.666667 0.000000
0.882353 0.666667 0.000000
0.888889 0.666667 0.000000
0.894737 0.666667 0.000000
0.900000 0.666667 0.000000
0.904762 0.666667 0.000000
0.909091 0.666667 0.000000
0.913043 0.666667 0.000000
0.916667 0.666667 0.000000
0.920000 0.666667 0.000000
0.923077 0.666667 0.000000
0.925926 0.666667 0.000000
0.928571 0.666667 0.000000
0.931035 0.666667 0.000000
0.933333 0.666667 0.000000
0.935484 0.666667 0.000000
0.937500 0.666667 0.000000
0.939394 0.666667 0.000000
0.941176 0.666667 0.000000
0.000000 0.714286 0.000000
0.333333 0.714286 0.000000
0.500000 0.714286 0.000000
0.600000 0.714286 0.000000
0.666667 0.714286 0.000000
0.714286 0.714286 0.000000
0.750000 0.714286 0.000000
0.777778 0.714286 0.000000
0.800000 0.714286 0.000000
0.818182 0.714286 0.000000
0.833333 0.714286 0.000000
0.846154 0.714286 0.000000
0.857143 0.714286 0.000000
0.866667 0.714286 0.000000
0.875000 0.714286 0.000000
0.882353 0.714286 0.000000
0.888889 0.714286 0.000000
0.894737 0.714286 0.000000
0.900000 0.714286 0.000000
0.904762 0.714286 0.000000
0.909091 0.714286 0.000000
0.913043 0.714286 0.000000
0.916667 0.714286 0.000000
0.920000 0.714286 0.000000
0.923077 0.714286 0.000000
0.925926 0.714286 0.000000
0.928571 0.714286 0.000000
0.931035 0.714286 0.000000
0.933333 0.714286 0.000000
0.935484 0.714286 0.000000
0.937500 0.714286 0.000000
0.939394 0.714286 0.000000
0.941176 0.714286 0.000000
0.000000 0.750000 0.000000
0.333333 0.750000 0.000000
0.500000 0.750000 0.000000
0.600000 0.750000 0.000000
0.666667 0.750000 0.000000
0.714286 0.750000 0.000000
0.750000 0.750000 0.000000
0.777778 0.750000 0.000000
0.800000 0.750000 0.000000
0.818182 0.750000 0.000000
0.833333 0.750000 0.000000
0.846154 0.750000 0.000000
0.857143 0.750000 0.000000
0.866667 0.750000 0.000000
0.875000 0.750000 0.000000
0.882353 0.750000 0.000000
0.888889 0.750000 0.000000
0.894737 0.750000 0.000000
0.900000 0.750000 0.000000
0.904762 0.750000 0.000000
0.909091 0.750000 0.000000
0.913043 0.750000 0.000000
0.916667 0.750000 0.000000
0.920000 0.750000 0.000000
0.923077 0.750000 0.000000
0.925926 0.750000 0.000000
0.928571 0.750000 0.000000
0.931035 0.750000 0.000000
0.933333 0.750000 0.000000
0.935484 0.750000 0.000000
0.937500 0.750000 0.000000
0.939394 0.750000 0.000000
0.941176 0.750000 0.000000
0.000000 0.777778 0.000000
0.333333 0.777778 0.000000
0.500000 0.777778 0.000000
0.600000 0.777778 0.000000
0.666667 0.777778 0.000000
0.714286 0.777778 0.000000
0.750000 0.777778 0.000000
0.777778 0.777778 0.000000
0.800000 0.777778 0.000000
0.818182 0.777778 0.000000
0.833333 0.777778 0.000000
0.846154 0.777778 0.000000
0.857143 0.777778 0.000000
0.866667 0.777778 0.000000
0.875000 0.777778 0.000000
0.882353 0.777778 0.000000
0.888889 0.777778 0.000000
0.894737 0.777778 0.000000
0.900000 0.777778 0.000000
0.904762 0.777778 0.000000
0.909091 0.777778 0.000000
0.913043 0.777778 0.000000
0.916667 0.777778 0.000000
0.920000 0.777778 0.000000
0.923077 0.777778 0.000000
0.925926 0.777778 0.000000
0.928571 0.777778 0.000000
0.931035 0.777778 0.000000
0.933333 0.777778 0.000000
0.935484 0.777778 0.000000
0.937500 0.777778 0.000000
0.939394 0.777778 0.000000
0.941176 0.777778 0.000000
0.000000 0.800000 0.000000
0.333333 0.800000 0.000000
0.500000 0.800000 0.000000
0.600000 0.800000 0.000000
0.666667 0.800000 0.000000
0.714286 0.800000 0.000000
0.750000 0.800000 0.000000
0.777778 0.800000 0.000000
0.800000 0.800000 0.000000
0.818182 0.800000 0.000000
0.833333 0.800000 0.000000
0.846154 0.800000 0.000000
0.857143 0.800000 0.000000
0.866667 0.800000 0.000000
0.875000 0.800000 0.000000
0.882353 0.800000 0.000000
0.888889 0.800000 0.000000
0.894737 0.800000 0.000000
0.900000 0.800000 0.000000
0.904762 0.800000 0.000000
0.909091 0.800000 0.000000
0.913043 0.800000 0.000000
0.916667 0.800000 0.000000
0.920000 0.800000 0.000000
0.923077 0.800000 0.000000
0.925926 0.800000 0.000000
0.928571 0.800000 0.000000
0.931035 0.800000 0.000000
0.933333 0.800000 0.000000
0.935484 0.800000 0.000000
0.937500 0.800000 0.000000
0.939394 0.800000 0.000000
0.941176 0.800000 0.000000
0.000000 0.818182 0.000000
0.333333 0.818182 0.000000
0.500000 0.818182 0.000000
0.600000 0.818182 0.000000
0.666667 0.818182 0.000000
0.714286 0.818182 0.000000
0.750000 0.818182 0.000000
0.777778 0.818182 0.000000
0.800000 0.818182 0.000000
0.818182 0.818182 0.000000
0.833333 0.818182 0.000000
0.846154 0.818182 0.000000
0.857143 0.818182 0.000000
0.866667 0.818182 0.000000
0.875000 0.818182 0.000000
0.882353 0.818182 0.000000
0.888889 0.818182 0.000000
0.894737 0.818182 0.000000
0.900000 0.818182 0.000000
0.904762 0.818182 0.000000
0.909091 0.818182 0.000000
0.913043 0.818182 0.000000
0.916667 0.818182 0.000000
0.920000 0.818182 0.000000
0.923077 0.818182 0.000000
0.925926 0.818182 0.000000
0.928571 0.818182 0.000000
0.931035 0.818182 0.000000
0.933333 0.818182 0.000000
0.935484 0.818182 0.000000
0.937500 0.818182 0.000000
0.939394 0.818182 0.000000
0.941176 0.818182 0.000000
0.000000 0.833333 0.000000
0.333333 0.833333 0.000000
0.500000 0.833333 0.000000
0.600000 0.833333 0.000000
0.666667 0.833333 0.000000
0.714286 0.833333 0.000000
0.750000 0.833333 0.000000
0.777778 0.833333 0.000000
0.800000 0.833333 0.000000
0.818182 0.833333 0.000000
0.833333 0.833333 0.000000
0.846154 0.833333 0.000000
0.857143 0.833333 0.000000
0.866667 0.833333 0.000000
0.875000 0.833333 0.000000
0.882353 0.833333 0.000000
0.888889 0.833333 0.000000
0.894737 0.833333 0.000000
0.900000 0.833333 0.000000
0.904762 0.833333 0.000000
0.909091 0.833333 0.000000
0.913043 0.833333 0.000000
0.916667 0.833333 0.000000
0.920000 0.833333 0.000000
0.923077 0.833333 0.000000
0.925926 0.833333 0.000000
0.928571 0.833333 0.000000
0.931035 0.833333 0.000000
0.933333 0.833333 0.000000
0.935484 0.833333 0.000000
0.937500 0.833333 0.000000
0.939394 0.833333 0.000000
0.941176 0.833333 0.000000
0.000000 0.846154 0.000000
0.333333 0.846154 0.000000
0.500000 0.846154 0.000000
0.600000 0.846154 0.000000
0.666667 0.846154 0.000000
0.714286 0.846154 0.000000
0.750000 0.846154 0.000000
0.777778 0.846154 0.000000
0.800000 0.846154 0.000000
0.818182 0.846154 0.000000
0.833333 0.846154 0.000000
0.846154 0.846154 0.000000
0.857143 0.846154 0.000000
0.866667 0.846154 0.000000
0.875000 0.846154 0.000000
0.882353 0.846154 0.000000
0.888889 0.846154 0.000000
0.894737 0.846154 0.000000
0.900000 0.846154 0.000000
0.904762 0.846154 0.000000
0.909091 0.846154 0.000000
0.913043 0.846154 0.000000
0.916667 0.846154 0.000000
0.920000 0.846154 0.000000
0.923077 0.846154 0.000000
0.925926 0.846154 0.000000
0.928571 0.846154 0.000000
0.931035 0.846154 0.000000
0.933333 0.846154 0.000000
0.935484 0.846154 0.000000
0.937500 0.846154 0.000000
0.939394 0.846154 0.000000
0.941176 0.846154 0.000000
0.000000 0.857143 0.000000
0.333333 0.857143 0.000000
0.500000 0.857143 0.000000
0.600000 0.857143 0.000000
0.666667 0.857143 0.000000
0.714286 0.857143 0.000000
0.750000 0.857143 0.000000
0.777778 0.857143 0.000000
0.800000 0.857143 0.000000
0.818182 0.857143 0.000000
0.833333 0.857143 0.000000
0.846154 0.857143 0.000000
0.857143 0.857143 0.000000
0.866667 0.857143 0.000000
0.875000 0.857143 0.000000
0.882353 0.857143 0.000000
0.888889 0.857143 0.000000
0.894737 0.857143 0.000000
0.900000 0.857143 0.000000
0.904762 0.857143 0.000000
0.909091 0.857143 0.000000
0.913043 0.857143 0.000000
0.916667 0.857143 0.000000
0.920000 0.857143 0.000000
0.923077 0.857143 0.000000
0.925926 0.857143 0.000000
0.928571 0.857143 0.000000
0.931035 0.857143 0.000000
0.933333 0.857143 0.000000
0.935484 0.857143 0.000000
0.937500 0.857143 0.000000
0.939394 0.857143 0.000000
0.941176 0.857143 0.000000
0.000000 0.866667 0.000000
0.333333 0.866667 0.000000
0.500000 0.866667 0.000000
0.600000 0.866667 0.000000
0.666667 0.866667 0.000000
0.714286 0.866667 0.000000
0.750000 0.866667 0.000000
0.777778 0.866667 0.000000
0.800000 0.866667 0.000000
0.818182 0.866667 0.000000
0.833333 0.866667 0.000000
0.846154 0.866667 0.000000
0.857143 0.866667 0.000000
0.866667 0.866667 0.000000
0.875000 0.866667 0.000000
0.882353 0.866667 0.000000
0.888889 0.866667 0.000000
0.894737 0.866667 0.000000
0.900000 0.866667 0.000000
0.904762 0.866667 0.000000
0.909091 0.866667 0.000000
0.913043 0.866667 0.000000
0.916667 0.866667 0.000000
0.920000 0.866667 0.000000
0.923077 0.866667 0.000000
0.925926 0.866667 0.000000
0.928571 0.866667 0.000000
0.931035 0.866667 0.000000
0.933333 0.866667 0.000000
0.935484 0.866667 0.000000
0.937500 0.866667 0.000000
0.939394 0.866667 0.000000
0.941176 0.866667 0.000000
0.000000 0.875000 0.000000
0.333333 0.875000 0.000000
0.500000 0.875000 0.000000
0.600000 0.875000 0.000000
0.666667 0.875000 0.000000
0.714286 0.875000 0.000000
0.750000 0.875000 0.000000
0.777778 0.875000 0.000000
0.800000 0.875000 0.000000
0.818182 0.875000 0.000000
0.833333 0.875000 0.000000
0.846154 0.875000 0.000000
0.857143 0.875000 0.000000
0.866667 0.875000 0.000000
0.875000 0.875000 0.000000
0.882353 0.875000 0.000000
0.888889 0.875000 0.000000
0.894737 0.875000 0.000000
0.900000 0.875000 0.000000
0.904762 0.875000 0.000000
0.909091 0.875000 0.000000
0.913043 0.875000 0.000000
0.916667 0.875000 0.000000
0.920000 0.875000 0.000000
0.923077 0.875000 0.000000
0.925926 0.875000 0.000000
0.928571 0.875000 0.000000
0.931035 0.875000 0.000000
0.933333 0.875000 0.000000
0.935484 0.875000 0.000000
0.937500 0.875000 0.000000
0.939394 0.875000 0.000000
0.941176 0.875000 0.000000
0.000000 0.882353 0.000000
0.333333 0.882353 0.000000
0.500000 0.882353 0.000000
0.600000 0.882353 0.000000
0.666667 0.882353 0.000000
0.714286 0.882353 0.000000
0.750000 0.882353 0.000000
0.777778 0.882353 0.000000
0.800000 0.882353 0.000000
0.818182 0.882353 0.000000
0.833333 0.882353 0.000000
0.846154 0.882353 0.000000
0.857143 0.882353 0.000000
0.866667 0.882353 0.000000
0.875000 0.882353 0.000000
0.882353 0.882353 0.000000
0.888889 0.882353 0.000000
0.894737 0.882353 0.000000
0.900000 0.882353 0.000000
0.904762 0.882353 0.000000
0.909091 0.882353 0.000000
0.913043 0.882353 0.000000
0.916667 0.882353 0.000000
0.920000 0.882353 0.000000
0.923077 0.882353 0.000000
0.925926 0.882353 0.000000
0.928571 0.882353 0.000000
0.931035 0.882353 0.000000
0.933333 0.882353 0.000000
0.935484 0.882353 0.000000
0.937500 0.882353 0.000000
0.939394 0.882353 0.000000
0.941176 0.882353 0.000000
0.000000 0.888889 0.000000
0.333333 0.888889 0.000000
0.500000 0.888889 0.000000
0.600000 0.888889 0.000000
0.666667 0.888889 0.000000
0.714286 0.888889 0.000000
0.750000 0.888889 0.000000
0.777778 0.888889 0.000000
0.800000 0.888889 0.000000
0.818182 0.888889 0.000000
0.833333 0.888889 0.000000
0.846154 0.888889 0.000000
0.857143 0.888889 0.000000
0.866667 0.888889 0.000000
0.875000 0.888889 0.000000
0.882353 0.888889 0.000000
0.888889 0.888889 0.000000
0.894737 0.888889 0.000000
0.900000 0.888889 0.000000
0.904762 0.888889 0.000000
0.909091 0.888889 0.000000
0.913043 0.888889 0.000000
0.916667 0.888889 0.000000
0.920000 0.888889 0.000000
0.923077 0.888889 0.000000
0.925926 0.888889 0.000000
0.928571 0.888889 0.000000
0.931035 0.888889 0.000000
0.933333 0.888889 0.000000
0.935484 0.888889 0.000000
0.937500 0.888889 0.000000
0.939394 0.888889 0.000000
0.941176 0.888889 0.000000
0.000000 0.894737 0.000000
0.333333 0.894737 0.000000
0.500000 0.894737 0.000000
0.600000 0.894737 0.000000
0.666667 0.894737 0.000000
0.714286 0.894737 0.000000
0.750000 0.894737 0.000000
0.777778 0.894737 0.000000
0.800000 0.894737 0.000000
0.818182 0.894737 0.000000
0.833333 0.894737 0.000000
0.846154 0.894737 0.000000
0.857143 0.894737 0.000000
0.866667 0.894737 0.000000
0.875000 0.894737 0.000000
0.882353 0.894737 0.000000
0.888889 0.894737 0.000000
0.894737 0.894737 0.000000
0.900000 0.894737 0.000000
0.904762 0.894737 0.000000
0.909091 0.894737 0.000000
0.913043 0.894737 0.000000
0.916667 0.894737 0.000000
0.920000 0.894737 0.000000
0.923077 0.894737 0.000000
0.925926 0.894737 0.000000
0.928571 0.894737 0.000000
0.931035 0.894737 0.000000
0.933333 0.894737 0.000000
0.935484 0.894737 0.000000
0.937500 0.894737 0.000000
0.939394 0.894737 0.000000
0.941176 0.894737 0.000000
0.000000 0.900000 0.000000
0.333333 0.900000 0.000000
0.500000 0.900000 0.000000
0.600000 0.900000 0.000000
0.666667 0.900000 0.000000
0.714286 0.900000 0.000000
0.750000 0.900000 0.000000
0.777778 0.900000 0.000000
0.800000 0.900000 0.000000
0.818182 0.900000 0.000000
0.833333 0.900000 0.000000
0.846154 0.900000 0.000000
0.857143 0.900000 0.000000
0.866667 0.900000 0.000000
0.875000 0.900000 0.000000
0.882353 0.900000 0.000000
0.888889 0.900000 0.000000
0.894737 0.900000 0.000000
0.900000 0.900000 0.000000
0.904762 0.900000 0.000000
0.909091 0.900000 0.000000
0.913043 0.900000 0.000000
0.916667 0.900000 0.000000
0.920000 0.900000 0.000000
0.923077 0.900000 0.000000
0.925926 0.900000 0.000000
0.928571 0.900000 0.000000
0.931035 0.900000 0.000000
0.933333 0.900000 0.000000
0.935484 0.900000 0.000000
0.937500 0.900000 0.000000
0.939394 0.900000 0.000000
0.941176 0.900000 0.000000
0.000000 0.904762 0.000000
0.333333 0.904762 0.000000
0.500000 0.904762 0.000000
0.600000 0.904762 0.000000
0.666667 0.904762 0.000000
0.714286 0.904762 0.000000
0.750000 0.904762 0.000000
0.777778 0.904762 0.000000
0.800000 0.904762 0.000000
0.818182 0.904762 0.000000
0.833333 0.904762 0.000000
0.846154 0.904762 0.000000
0.857143 0.904762 0.000000
0.866667 0.904762 0.000000
0.875000 0.904762 0.000000
0.882353 0.904762 0.000000
0.888889 0.904762 0.000000
0.894737 0.904762 0.000000
0.900000 0.904762 0.000000
0.904762 0.904762 0.000000
0.909091 0.904762 0.000000
0.913043 0.904762 0.000000
0.916667 0.904762 0.000000
0.920000 0.904762 0.000000
0.923077 0.904762 0.000000
0.925926 0.904762 0.000000
0.928571 0.904762 0.000000
0.931035 0.904762 0.000000
0.933333 0.904762 0.000000
0.935484 0.904762 0.000000
0.937500 0.904762 0.000000
0.939394 0.904762 0.000000
0.941176 0.904762 0.000000
0.000000 0.909091 0.000000
0.333333 0.909091 0.000000
0.500000 0.909091 0.000000
0.600000 0.909091 0.000000
0.666667 0.909091 0.000000
0.714286 0.909091 0.000000
0.750000 0.909091 0.000000
0.777778 0.909091 0.000000
0.800000 0.909091 0.000000
0.818182 0.909091 0.000000
0.833333 0.909091 0.000000
0.846154 0.909091 0.000000
0.857143 0.909091 0.000000
0.866667 0.909091 0.000000
0.875000 0.909091 0.000000
0.882353 0.909091 0.000000
0.888889 0.909091 0.000000
0.894737 0.909091 0.000000
0.900000 0.909091 0.000000
0.904762 0.909091 0.000000
0.909091 0.909091 0.000000
0.913043 0.909091 0.000000
0.916667 0.909091 0.000000
0.920000 0.909091 0.000000
0.923077 0.909091 0.000000
0.925926 0.909091 0.000000
0.928571 0.909091 0.000000
0.931035 0.909091 0.000000
0.933333 0.909091 0.000000
0.935484 0.909091 0.000000
0.937500 0.909091 0.000000
0.939394 0.909091 0.000000
0.941176 0.909091 0.000000
0.000000 0.913043 0.000000
0.333333 0.913043 0.000000
0.500000 0.913043 0.000000
0.600000 0.913043 0.000000
0.666667 0.913043 0.000000
0.714286 0.913043 0.000000
0.750000 0.913043 0.000000
0.777778 0.913043 0.000000
0.800000 0.913043 0.000000
0.818182 0.913043 0.000000
0.833333 0.913043 0.000000
0.846154 0.913043 0.000000
0.857143 0.913043 0.000000
0.866667 0.913043 0.000000
0.875000 0.913043 0.000000
0.882353 0.913043 0.000000
0.888889 0.913043 0.000000
0.894737 0.913043 0.000000
0.900000 0.913043 0.000000
0.904762 0.913043 0.000000
0.909091 0.913043 0.000000
0.913043 0.913043 0.000000
0.916667 0.913043 0.000000
0.920000 0.913043 0.000000
0.923077 0.913043 0.000000
0.925926 0.913043 0.000000
0.928571 0.913043 0.000000
0.931035 0.913043 0.000000
0.933333 0.913043 0.000000
0.935484 0.913043 0.000000
0.937500 0.913043 0.000000
0.939394 0.913043 0.000000
0.941176 0.913043 0.000000
0.000000 0.916667 0.000000
0.333333 0.916667 0.000000
0.500000 0.916667 0.000000
0.600000 0.916667 0.000000
0.666667 0.916667 0.000000
0.714286 0.916667 0.000000
0.750000 0.916667 0.000000
0.777778 0.916667 0.000000
0.800000 0.916667 0.000000
0.818182 0.916667 0.000000
0.833333 0.916667 0.000000
0.846154 0.916667 0.000000
0.857143 0.916667 0.000000
0.866667 0.916667 0.000000
0.875000 0.916667 0.000000
0.882353 0.916667 0.000000
0.888889 0.916667 0.000000
0.894737 0.916667 0.000000
0.900000 0.916667 0.000000
0.904762 0.916667 0.000000
0.909091 0.916667 0.000000
0.913043 0.916667 0.000000
0.916667 0.916667 0.000000
0.920000 0.916667 0.000000
0.923077 0.916667 0.000000
0.925926 0.916667 0.000000
0.928571 0.916667 0.000000
0.931035 0.916667 0.000000
0.933333 0.916667 0.000000
0.935484 0.916667 0.000000
0.937500 0.916667 0.000000
0.939394 0.916667 0.000000
0.941176 0.916667 0.000000
0.000000 0.920000 0.000000
0.333333 0.920000 0.000000
0.500000 0.920000 0.000000
0.600000 0.920000 0.000000
0.666667 0.920000 0.000000
0.714286 0.920000 0.000000
0.750000 0.920000 0.000000
0.777778 0.920000 0.000000
0.800000 0.920000 0.000000
0.818182 0.920000 0.000000
0.833333 0.920000 0.000000
0.846154 0.920000 0.000000
0.857143 0.920000 0.000000
0.866667 0.920000 0.000000
0.875000 0.920000 0.000000
0.882353 0.920000 0.000000
0.888889 0.920000 0.000000
0.894737 0.920000 0.000000
0.900000 0.920000 0.000000
0.904762 0.920000 0.000000
0.909091 0.920000 0.000000
0.913043 0.920000 0.000000
0.916667 0.920000 0.000000
0.920000 0.920000 0.000000
0.923077 0.920000 0.000000
0.925926 0.920000 0.000000
0.928571 0.920000 0.000000
0.931035 0.920000 0.000000
0.933333 0.920000 0.000000
0.935484 0.920000 0.000000
0.937500 0.920000 0.000000
0.939394 0.920000 0.000000
0.941176 0.920000 0.000000
0.000000 0.923077 0.000000
0.333333 0.923077 0.000000
0.500000 0.923077 0.000000
0.600000 0.923077 0.000000
0.666667 0.923077 0.000000
0.714286 0.923077 0.000000
0.750000 0.923077 0.000000
0.777778 0.923077 0.000000
0.800000 0.923077 0.000000
0.818182 0.923077 0.000000
0.833333 0.923077 0.000000
0.846154 0.923077 0.000000
0.857143 0.923077 0.000000
0.866667 0.923077 0.000000
0.875000 0.923077 0.000000
0.882353 0.923077 0.000000
0.888889 0.923077 0.000000
0.894737 0.923077 0.000000
0.900000 0.923077 0.000000
0.904762 0.923077 0.000000
0.909091 0.923077 0.000000
0.913043 0.923077 0.000000
0.916667 0.923077 0.000000
0.920000 0.923077 0.000000
0.923077 0.923077 0.000000
0.925926 0.923077 0.000000
0.928571 0.923077 0.000000
0.931035 0.923077 0.000000
0.933333 0.923077 0.000000
0.935484 0.923077 0.000000
0.937500 0.923077 0.000000
0.939394 0.923077 0.000000
0.941176 0.923077 0.000000
0.000000 0.925926 0.000000
0.333333 0.925926 0.000000
0.500000 0.925926 0.000000
0.600000 0.925926 0.000000
0.666667 0.925926 0.000000
0.714286 0.925926 0.000000
0.750000 0.925926 0.000000
0.777778 0.925926 0.000000
0.800000 0.925926 0.000000
0.818182 0.925926 0.000000
0.833333 0.925926 0.000000
0.846154 0.925926 0.000000
0.857143 0.925926 0.000000
0.866667 0.925926 0.000000
0.875000 0.925926 0.000000
0.882353 0.925926 0.000000
0.888889 0.925926 0.000000
0.894737 0.925926 0.000000
0.900000 0.925926 0.000000
0.904762 0.925926 0.000000
0.909091 0.925926 0.000000
0.913043 0.925926 0.000000
0.916667 0.925926 0.000000
0.920000 0.925926 0.000000
0.923077 0.925926 0.000000
0.925926 0.925926 0.000000
0.928571 0.925926 0.000000
0.931035 0.925926 0.000000
0.933333 0.925926 0.000000
0.935484 0.925926 0.000000
0.937500 0.925926 0.000000
0.939394 0.925926 0.000000
0.941176 0.925926 0.000000
0.000000 0.928571 0.000000
0.333333 0.928571 0.000000
0.500000 0.928571 0.000000
0.600000 0.928571 0.000000
0.666667 0.928571 0.000000
0.714286 0.928571 0.000000
0.750000 0.928571 0.000000
0.777778 0.928571 0.000000
0.800000 0.928571 0.000000
0.818182 0.928571 0.000000
0.833333 0.928571 0.000000
0.846154 0.928571 0.000000
0.857143 0.928571 0.000000
0.866667 0.928571 0.000000
0.875000 0.928571 0.000000
0.882353 0.928571 0.000000
0.888889 0.928571 0.000000
0.894737 0.928571 0.000000
0.900000 0.928571 0.000000
0.904762 0.928571 0.000000
0.909091 0.928571 0.000000
0.913043 0.928571 0.000000
0.916667 0.928571 0.000000
0.920000 0.928571 0.000000
0.923077 0.928571 0.000000
0.925926 0.928571 0.000000
0.928571 0.928571 0.000000
0.931035 0.928571 0.000000
0.933333 0.928571 0.000000
0.935484 0.928571 0.000000
