assets/ocio_configs/srgb_reinhard/luts/reinhard_33.cube
LUT_3D_SIZE 5
0.000000 0.000000 0.000000
0.800000 0.000000 0.000000
0.888889 0.000000 0.000000
0.923077 0.000000 0.000000
0.941176 0.000000 0.000000
0.000000 0.800000 0.000000
0.800000 0.800000 0.000000
0.888889 0.800000 0.000000
0.923077 0.800000 0.000000
0.941176 0.800000 0.000000
0.000000 0.888889 0.000000
0.800000 0.888889 0.000000
0.888889 0.888889 0.000000
0.923077 0.888889 0.000000
0.941176 0.888889 0.000000
0.000000 0.923077 0.000000
0.800000 0.923077 0.000000
0.888889 0.923077 0.000000
0.923077 0.923077 0.000000
0.941176 0.923077 0.000000
0.000000 0.941176 0.000000
0.800000 0.941176 0.000000
0.888889 0.941176 0.000000
0.923077 0.941176 0.000000
0.941176 0.941176 0.000000
0.000000 0.000000 0.800000
0.800000 0.000000 0.800000
0.888889 0.000000 0.800000
0.923077 0.000000 0.800000
0.941176 0.000000 0.800000
0.000000 0.800000 0.800000
0.800000 0.800000 0.800000
0.888889 0.800000 0.800000
0.923077 0.800000 0.800000
0.941176 0.800000 0.800000
0.000000 0.888889 0.800000
0.800000 0.888889 0.800000
0.888889 0.888889 0.800000
0.923077 0.888889 0.800000
0.941176 0.888889 0.800000
0.000000 0.923077 0.800000
0.800000 0.923077 0.800000
0.888889 0.923077 0.800000
0.923077 0.923077 0.800000
0.941176 0.923077 0.800000
0.000000 0.941176 0.800000
0.800000 0.941176 0.800000
0.888889 0.941176 0.800000
0.923077 0.941176 0.800000
0.941176 0.941176 0.800000
0.000000 0.000000 0.888889
0.800000 0.000000 0.888889
0.888889 0.000000 0.888889
0.923077 0.000000 0.888889
0.941176 0.000000 0.888889
0.000000 0.800000 0.888889
0.800000 0.800000 0.888889
0.888889 0.800000 0.888889
0.923077 0.800000 0.888889
0.941176 0.800000 0.888889
0.000000 0.888889 0.888889
0.800000 0.888889 0.888889
0.888889 0.888889 0.888889
0.923077 0.888889 0.888889
0.941176 0.888889 0.888889
0.000000 0.923077 0.888889
0.800000 0.923077 0.888889
0.888889 0.923077 0.888889
0.923077 0.923077 0.888889
0.941176 0.923077 0.888889
0.000000 0.941176 0.888889
0.800000 0.941176 0.888889
0.888889 0.941176 0.888889
0.923077 0.941176 0.888889
0.941176 0.941176 0.888889
0.000000 0.000000 0.923077
0.800000 0.000000 0.923077
0.888889 0.000000 0.923077
0.923077 0.000000 0.923077
0.941176 0.000000 0.923077
0.000000 0.800000 0.923077
0.800000 0.800000 0.923077
0.888889 0.800000 0.923077
0.923077 0.800000 0.923077
0.941176 0.800000 0.923077
0.000000 0.888889 0.923077
0.800000 0.888889 0.923077
0.888889 0.888889 0.923077
0.923077 0.888889 0.923077
0.941176 0.888889 0.923077
0.000000 0.923077 0.923077
0.800000 0.923077 0.923077
0.888889 0.923077 0.923077
0.923077 0.923077 0.923077
0.941176 0.923077 0.923077
0.000000 0.941176 0.923077
0.800000 0.941176 0.923077
0.888889 0.941176 0.923077
0.923077 0.941176 0.923077
0.941176 0.941176 0.923077
0.000000 0.000000 0.941176
0.800000 0.000000 0.941176
0.888889 0.000000 0.941176
0.923077 0.000000 0.941176
0.941176 0.000000 0.941176
0.000000 0.800000 0.941176
0.800000 0.800000 0.941176
0.888889 0.800000 0.941176
0.923077 0.800000 0.941176
0.941176 0.800000 0.941176
0.000000 0.888889 0.941176
0.800000 0.888889 0.941176
0.888889 0.888889 0.941176
0.923077 0.888889 0.941176
0.941176 0.888889 0.941176
0.000000 0.923077 0.941176
0.800000 0.923077 0.941176
0.888889 0.923077 0.941176
0.923077 0.923077 0.941176
0.941176 0.923077 0.941176
0.000000 0.941176 0.941176
0.800000 0.941176 0.941176
0.888889 0.941176 0.941176
0.923077 0.941176 0.941176
0.941176 0.941176 0.941176
